MA5T1/108/aimg/naranja.svg

<svg clip-rule="evenodd" fill-rule="evenodd" stroke-linejoin="round" stroke-miterlimit="2" viewBox="0 0 178 237" xmlns="http://www.w3.org/2000/svg"><path d="m452.372 533.235h14.173v14.173h-14.173zm14.173 0h14.173v14.173h-14.173zm14.173 0h14.173v14.173h-14.173zm-28.346 14.173h14.173v14.173h-14.173zm14.173 0h14.173v14.173h-14.173zm14.173 0h14.173v14.173h-14.173zm-14.173 14.173h14.173v14.173h-14.173zm14.173 0h14.173v14.173h-14.173zm-14.173 14.173h14.173v14.173h-14.173zm14.173 0h14.173v14.173h-14.173z" fill="#fcc188" fill-rule="nonzero" transform="matrix(4.16667 0 0 4.16667 -1884.9 -2221.81785936)"/></svg>

<?xml version="1.0" encoding="UTF-8" standalone="no"?>
<!DOCTYPE svg PUBLIC "-//W3C//DTD SVG 1.1//EN" "http://www.w3.org/Graphics/SVG/1.1/DTD/svg11.dtd">
<svg width="100%" height="100%" viewBox="0 0 178 237" version="1.1" xmlns="http://www.w3.org/2000/svg" xmlns:xlink="http://www.w3.org/1999/xlink" xml:space="preserve" xmlns:serif="http://www.serif.com/" style="fill-rule:evenodd;clip-rule:evenodd;stroke-linejoin:round;stroke-miterlimit:2;">
    <g transform="matrix(1,0,0,1,-15504.5,-7906.14)">
        <g transform="matrix(4.16667,0,0,4.16667,13619.6,7175.19)">
            <g transform="matrix(1,0,0,1,0,-357.808)">
                <path d="M452.372,533.235L466.545,533.235L466.545,547.408L452.372,547.408L452.372,533.235ZM466.545,533.235L480.718,533.235L480.718,547.408L466.545,547.408L466.545,533.235ZM480.718,533.235L494.891,533.235L494.891,547.408L480.718,547.408L480.718,533.235ZM452.372,547.408L466.545,547.408L466.545,561.581L452.372,561.581L452.372,547.408ZM466.545,547.408L480.718,547.408L480.718,561.581L466.545,561.581L466.545,547.408ZM480.718,547.408L494.891,547.408L494.891,561.581L480.718,561.581L480.718,547.408ZM466.545,561.581L480.718,561.581L480.718,575.754L466.545,575.754L466.545,561.581ZM480.718,561.581L494.891,561.581L494.891,575.754L480.718,575.754L480.718,561.581ZM466.545,575.754L480.718,575.754L480.718,589.927L466.545,589.927L466.545,575.754ZM480.718,575.754L494.891,575.754L494.891,589.927L480.718,589.927L480.718,575.754Z" style="fill:rgb(252,193,136);fill-rule:nonzero;"/>
            </g>
        </g>
    </g>
</svg>
